X:1
T:Title
%%score { ( 1 3 ) | 2 }
L:1/8
M:4/4
K:Ab
V:1 treble nm="Grand Piano"
V:3 treble 
V:2 treble 
V:1
 z4 z2[Q:1/4=96] EE | A2 AA A2 AB | c2 A4 [CE][CE] | F2 AA A2 GG | [CA]6 cc | B2 BB A2 [=DA][DA] | %6
 G2 B4 EE | F2 AA G2 [=DF][DF] |[M:3/4] E6 |[M:1/4] [Ge][Ge] |[M:4/4] e2 cB AB c2 |[M:3/4] E6 | %12
[M:1/4] ee |[M:4/4] e2 cB AFGA | B6 z2 | AEA[EGB] [EAc]2 AA | %16
[M:9/8] BFB [F=Ac] [FBd]2- [FBd][A=d][Ad] | %17
[M:17/16] [Ae][CA]3/2[FAd][EAc][EGc][EGc]-<[EGc][DGB][Q:1/4=93][Q:1/4=90][Q:1/4=87][Q:1/4=84][Q:1/4=81][Q:1/4=78][Q:1/4=75] | %18
[M:3/4] [A,CEA]6 |] %19
V:2
 z4 z2 [A,C][A,C] | [A,CE]2 [A,DF][A,DF] [A,CE]2 [A,C][A,DA] | %2
 [A,EA]2[K:bass] [A,C]4 [A,,A,][A,,A,] | [D,A,D]2 [F,A,D][F,A,D] [E,B,D]2 [E,B,D][E,B,D] | %4
 [A,,A,]6 [A,E][A,E] | [G,B,E]2 [G,B,E][G,B,E] [F,B,=D]2 [B,,B,][B,,B,] | %6
 [E,B,E]2 [G,B,E]4 [G,B,][G,B,] | [A,CE]2 [F,CF][F,CF] [B,E]2 [B,,A,][B,,A,] |[M:3/4] [E,G,]6 | %9
[M:1/4] [E,D][E,D] |[M:4/4][K:treble] [A,CA]2 [A,EA][A,DE] [A,CE][A,DE] [A,EA]2 | %11
[M:3/4] [A,C]2 [G,B,]2 A,2 |[M:1/4] [A,CA][A,CA] | %13
[M:4/4] [A,CA]2 [A,EA][K:bass][A,DE] [A,CE][A,B,=D][G,B,D][F,B,D] | %14
 [E,G,E]2 [F,A,]2 [G,B,]2 [E,D][E,D] | [A,CE]E,A,E, A,2 A,A, | %16
[M:9/8] [B,DF]F,B, F, B,2- B,[F,B,][F,B,] |[M:17/16] [E,C]E,3/2E,E,E,E,-<E,E, |[M:3/4] A,,6 |] %19
V:3
 x8 | x8 | x8 | x8 | x8 | x8 | x8 | x8 |[M:3/4] x6 |[M:1/4] x2 |[M:4/4] x8 |[M:3/4] z2 D2 C2 | %12
[M:1/4] x2 |[M:4/4] x8 | z2 =D2 E2 EE | x8 |[M:9/8] x9 |[M:17/16] x17/2 |[M:3/4] x6 |] %19

